X: 41
T:St.Patrick's Day In The Morning. WM.041
M:6/8
L:1/8
Q:120
S:Wm.Mittell's MS,New Romney,Kent,1799
R:Jig
O:England
A:Kent
N:Slightly Bizarre version of a very well known tune
Z:vmp.Chris Partington
K:G
GAG GAB|ded dBG|BAB GED|E2EE2D|!
GAG GAB|ded dBG|BAB GED|E3G3:|!
|:defg2e|f2de2c|def gfe|fede3|def gag|fed efg|!
dBG GAB|ded dBG|BAB GED|E3G3:||
